report_00007_2020-12-11T15:55:29.892Z/metrics/comparison/line/5_vs_6.svg

<svg width="640" height="500" xmlns="http://www.w3.org/2000/svg" xmlns:xlink="http://www.w3.org/1999/xlink"><path fill="#fff" d="M0 0h640v500H0z"/><defs><path id="d" stroke-width=".222" stroke="currentColor" d="M-1-1h2v2h-2z"/><path id="b" stroke-width=".222" stroke="currentColor" d="M0-1.33l-1.33 2h2.66z"/><path id="f" stroke-width=".222" stroke="currentColor" d="M0 1.33L1.265.411.782-1.067l-1.564-.009-.483 1.487z"/><use xlink:href="#b" id="c" stroke="currentColor" transform="rotate(180)"/><use xlink:href="#d" id="e" stroke="currentColor" transform="rotate(45)"/><circle id="a" stroke-width=".222" stroke="currentColor" cx="0" cy="0" r="1"/></defs><g fill="none" color="#000" stroke="currentColor"><path stroke="#000" d="M62.2 426.5h9m543.8 0h-9"/><text transform="translate(53.9 430.4)" stroke="none" fill="#000" font-family="Arial" font-size="12" text-anchor="end"><tspan>1500</tspan></text></g><g fill="none" color="#000" stroke="currentColor"><path stroke="#000" d="M62.2 362.7h9m543.8 0h-9"/><text transform="translate(53.9 366.6)" stroke="none" fill="#000" font-family="Arial" font-size="12" text-anchor="end"><tspan>1600</tspan></text></g><g fill="none" color="#000" stroke="currentColor"><path stroke="#000" d="M62.2 298.9h9m543.8 0h-9"/><text transform="translate(53.9 302.8)" stroke="none" fill="#000" font-family="Arial" font-size="12" text-anchor="end"><tspan>1700</tspan></text></g><g fill="none" color="#000" stroke="currentColor"><path stroke="#000" d="M62.2 235.2h9m543.8 0h-9"/><text transform="translate(53.9 239.1)" stroke="none" fill="#000" font-family="Arial" font-size="12" text-anchor="end"><tspan>1800</tspan></text></g><g fill="none" color="#000" stroke="currentColor"><path stroke="#000" d="M62.2 171.4h9m543.8 0h-9"/><text transform="translate(53.9 175.3)" stroke="none" fill="#000" font-family="Arial" font-size="12" text-anchor="end"><tspan>1900</tspan></text></g><g fill="none" color="#000" stroke="currentColor"><path stroke="#000" d="M62.2 107.6h9m543.8 0h-9"/><text transform="translate(53.9 111.5)" stroke="none" fill="#000" font-family="Arial" font-size="12" text-anchor="end"><tspan>2000</tspan></text></g><g fill="none" color="#000" stroke="currentColor"><path stroke="#000" d="M62.2 43.8h9m543.8 0h-9"/><text transform="translate(53.9 47.7)" stroke="none" fill="#000" font-family="Arial" font-size="12" text-anchor="end"><tspan>2100</tspan></text></g><g fill="none" color="#000" stroke="currentColor"><path stroke="#000" d="M62.2 428v-9m0-400.9v9"/><text transform="translate(62.2 449.9)" stroke="none" fill="#000" font-family="Arial" font-size="12" text-anchor="middle"><tspan>0</tspan></text></g><g fill="none" color="#000" stroke="currentColor"><path stroke="#000" d="M118 428v-9m0-400.9v9"/><text transform="translate(118 449.9)" stroke="none" fill="#000" font-family="Arial" font-size="12" text-anchor="middle"><tspan>10</tspan></text></g><g fill="none" color="#000" stroke="currentColor"><path stroke="#000" d="M173.9 428v-9m0-400.9v9"/><text transform="translate(173.9 449.9)" stroke="none" fill="#000" font-family="Arial" font-size="12" text-anchor="middle"><tspan>20</tspan></text></g><g fill="none" color="#000" stroke="currentColor"><path stroke="#000" d="M229.7 428v-9m0-400.9v9"/><text transform="translate(229.7 449.9)" stroke="none" fill="#000" font-family="Arial" font-size="12" text-anchor="middle"><tspan>30</tspan></text></g><g fill="none" color="#000" stroke="currentColor"><path stroke="#000" d="M285.6 428v-9m0-400.9v9"/><text transform="translate(285.6 449.9)" stroke="none" fill="#000" font-family="Arial" font-size="12" text-anchor="middle"><tspan>40</tspan></text></g><g fill="none" color="#000" stroke="currentColor"><path stroke="#000" d="M341.4 428v-9m0-400.9v9"/><text transform="translate(341.4 449.9)" stroke="none" fill="#000" font-family="Arial" font-size="12" text-anchor="middle"><tspan>50</tspan></text></g><g fill="none" color="#000" stroke="currentColor"><path stroke="#000" d="M397.2 428v-9m0-400.9v9"/><text transform="translate(397.2 449.9)" stroke="none" fill="#000" font-family="Arial" font-size="12" text-anchor="middle"><tspan>60</tspan></text></g><g fill="none" color="#000" stroke="currentColor"><path stroke="#000" d="M453.1 428v-9m0-400.9v9"/><text transform="translate(453.1 449.9)" stroke="none" fill="#000" font-family="Arial" font-size="12" text-anchor="middle"><tspan>70</tspan></text></g><g fill="none" color="#000" stroke="currentColor"><path stroke="#000" d="M508.9 428v-9m0-400.9v9"/><text transform="translate(508.9 449.9)" stroke="none" fill="#000" font-family="Arial" font-size="12" text-anchor="middle"><tspan>80</tspan></text></g><g fill="none" color="#000" stroke="currentColor"><path stroke="#000" d="M564.7 428v-9m0-400.9v9"/><text transform="translate(564.7 449.9)" stroke="none" fill="#000" font-family="Arial" font-size="12" text-anchor="middle"><tspan>90</tspan></text></g><path stroke="#000" d="M62.2 18.1V428H615V18.1H62.2z" fill="none" color="#000"/><text transform="translate(437.8 467.9)" stroke="none" fill="#000" font-family="Arial" font-size="12" text-anchor="end" color="#000"><tspan>pages+cached+noexternal</tspan></text><path stroke="#9400D3" d="M446.1 464h42.2M62.2 223.1l5.6-1.3 5.6 1.3L79 75.7l5.5 146.1h5.6l5.6.6h5.6l5.6-146 5.6 1.2 5.5-2.5 5.6.6 5.6-.6 5.6 1.3 5.6 146.7 5.6-96.4 5.5-2.5 5.6-51 5.6 6.4 5.6-5.1 5.6 3.1 5.6 142.9 5.5 1.9 5.6.7 5.6-.7 5.6-.6 5.6 1.3L213 77l5.5 44.6 5.6-42.7 5.6 143.5 5.6-147.9 5.6 147.3 5.6.6 5.6-147.3 5.5 147.3 5.6 1.3 5.6-1.9 5.6-145.4h5.6l5.6.6 5.5 146.7 5.6-148 5.6 146.7 5.6 1.9 5.6-1.2 5.6-100.8 5.5 101.4 5.6-145.4 5.6 144.8 5.6-147.4h5.6l5.6-.6 5.5 2.5 5.6 143.5 5.6 3.2 5.6-2.5 5.6-98.9 5.6-47.2h5.5l5.6 147.4 5.6-148 5.6-1.9h5.6l5.6 5.7 5.5 45.9 5.6 96.3 5.6-146.6 5.6 1.9 5.6 147.3h5.6l5.6.6 5.5-1.2 5.6-146.7 5.6 146L481 78.3l5.6 143.5 5.6-146.1 5.5 147.4 5.6-147.4 5.6 146.1 5.6-97.6 5.6-48.5 5.6 148.6 5.5-3.2 5.6-142.8 5.6 45.9h5.6l5.6-47.8 5.6 146.7 5.5-148 5.6 148.6 5.6-147.3 5.6.6 5.6 47.8 5.6-48.4 5.5 145.4 5.6-145.4 5.6-.7 5.6 146.1" fill="none" color="#000"/><text transform="translate(437.8 485.9)" stroke="none" fill="#000" font-family="Arial" font-size="12" text-anchor="end" color="#000"><tspan>pages+cached+noexternal+nofonts</tspan></text><path stroke="#009E73" d="M446.1 482h42.2M62.2 418.2h11.2L79 225l5.5.6 5.6 193.2 5.6.7 5.6-241.7 5.6 241L112.5 26l5.5 199.6 5.6 193.2 5.6.7 5.6-.7H146l5.5-.6 5.6.6h5.6l5.6-386.4 5.6 386.4 5.6-1.2 5.5-.7 5.6-240.4 5.6 242.3 5.6.7h5.6l5.6-.7h11.1l5.6-392.2 5.6 3.2 5.6 389.7 5.6-194.5 5.6-195.8 5.5-1.3 5.6 390.9h5.6l5.6-1.2 5.6.6 5.6-391.6 5.5 391.6 5.6-387.1 5.6 387.7 5.6-.6 5.6-192 5.6 192.6 5.5-246.1 5.6 246.1 5.6-388.4 5.6-1.2 5.6 389.6h11.1L363.7 33l5.6 144.1 5.6 49.1 5.6-194.5 5.6 386.5 5.5.6 5.6.7 5.6-.7 5.6-.6L414 27.9l5.6 390.9 5.5-387.7 5.6-.7 5.6 387.8L441.9 26l5.6 392.8h16.7l5.6 1.3 5.6-388.4 5.6 386.5 5.6-386.5 5.6 387.8 5.5-194.5h5.6l5.6 193.2 5.6 1.3h5.6l5.6-.7 5.5-.6h5.6l5.6-386.5 5.6 387.1h5.6l5.6-390.3 5.5 390.3 5.6-.6h11.2l5.6-243.6 5.6 244.2 5.5-193.8 5.6 194.5 5.6-1.3h5.6" fill="none" color="#000"/><g fill="none" color="#000" stroke="currentColor"><path stroke="#000" d="M62.2 18.1V428H615V18.1H62.2z"/></g></svg>

<?xml version="1.0" encoding="utf-8"  standalone="no"?>
<svg 
 width="640" height="500"
 viewBox="0 0 640 500"
 xmlns="http://www.w3.org/2000/svg"
 xmlns:xlink="http://www.w3.org/1999/xlink"
>

<title>Gnuplot</title>
<desc>Produced by GNUPLOT 5.4 patchlevel 0 </desc>

<g id="gnuplot_canvas">

<rect x="0" y="0" width="640" height="500" fill="#ffffff"/>
<defs>

	<circle id='gpDot' r='0.5' stroke-width='0.5' stroke='currentColor'/>
	<path id='gpPt0' stroke-width='0.222' stroke='currentColor' d='M-1,0 h2 M0,-1 v2'/>
	<path id='gpPt1' stroke-width='0.222' stroke='currentColor' d='M-1,-1 L1,1 M1,-1 L-1,1'/>
	<path id='gpPt2' stroke-width='0.222' stroke='currentColor' d='M-1,0 L1,0 M0,-1 L0,1 M-1,-1 L1,1 M-1,1 L1,-1'/>
	<rect id='gpPt3' stroke-width='0.222' stroke='currentColor' x='-1' y='-1' width='2' height='2'/>
	<rect id='gpPt4' stroke-width='0.222' stroke='currentColor' fill='currentColor' x='-1' y='-1' width='2' height='2'/>
	<circle id='gpPt5' stroke-width='0.222' stroke='currentColor' cx='0' cy='0' r='1'/>
	<use xlink:href='#gpPt5' id='gpPt6' fill='currentColor' stroke='none'/>
	<path id='gpPt7' stroke-width='0.222' stroke='currentColor' d='M0,-1.33 L-1.33,0.67 L1.33,0.67 z'/>
	<use xlink:href='#gpPt7' id='gpPt8' fill='currentColor' stroke='none'/>
	<use xlink:href='#gpPt7' id='gpPt9' stroke='currentColor' transform='rotate(180)'/>
	<use xlink:href='#gpPt9' id='gpPt10' fill='currentColor' stroke='none'/>
	<use xlink:href='#gpPt3' id='gpPt11' stroke='currentColor' transform='rotate(45)'/>
	<use xlink:href='#gpPt11' id='gpPt12' fill='currentColor' stroke='none'/>
	<path id='gpPt13' stroke-width='0.222' stroke='currentColor' d='M0,1.330 L1.265,0.411 L0.782,-1.067 L-0.782,-1.076 L-1.265,0.411 z'/>
	<use xlink:href='#gpPt13' id='gpPt14' fill='currentColor' stroke='none'/>
	<filter id='textbox' filterUnits='objectBoundingBox' x='0' y='0' height='1' width='1'>
	  <feFlood flood-color='#FFFFFF' flood-opacity='1' result='bgnd'/>
	  <feComposite in='SourceGraphic' in2='bgnd' operator='atop'/>
	</filter>
	<filter id='greybox' filterUnits='objectBoundingBox' x='0' y='0' height='1' width='1'>
	  <feFlood flood-color='lightgrey' flood-opacity='1' result='grey'/>
	  <feComposite in='SourceGraphic' in2='grey' operator='atop'/>
	</filter>
</defs>
<g fill="none" color="#FFFFFF" stroke="black" stroke-width="1.00" stroke-linecap="butt" stroke-linejoin="miter">
</g>
<g fill="none" color="black" stroke="currentColor" stroke-width="1.00" stroke-linecap="butt" stroke-linejoin="miter">
	<path stroke='black'  d='M62.2,426.5 L71.2,426.5 M615.0,426.5 L606.0,426.5  '/>	<g transform="translate(53.9,430.4)" stroke="none" fill="black" font-family="Arial" font-size="12.00"  text-anchor="end">
		<text><tspan font-family="Arial" > 1500</tspan></text>
	</g>
</g>
<g fill="none" color="black" stroke="currentColor" stroke-width="1.00" stroke-linecap="butt" stroke-linejoin="miter">
	<path stroke='black'  d='M62.2,362.7 L71.2,362.7 M615.0,362.7 L606.0,362.7  '/>	<g transform="translate(53.9,366.6)" stroke="none" fill="black" font-family="Arial" font-size="12.00"  text-anchor="end">
		<text><tspan font-family="Arial" > 1600</tspan></text>
	</g>
</g>
<g fill="none" color="black" stroke="currentColor" stroke-width="1.00" stroke-linecap="butt" stroke-linejoin="miter">
	<path stroke='black'  d='M62.2,298.9 L71.2,298.9 M615.0,298.9 L606.0,298.9  '/>	<g transform="translate(53.9,302.8)" stroke="none" fill="black" font-family="Arial" font-size="12.00"  text-anchor="end">
		<text><tspan font-family="Arial" > 1700</tspan></text>
	</g>
</g>
<g fill="none" color="black" stroke="currentColor" stroke-width="1.00" stroke-linecap="butt" stroke-linejoin="miter">
	<path stroke='black'  d='M62.2,235.2 L71.2,235.2 M615.0,235.2 L606.0,235.2  '/>	<g transform="translate(53.9,239.1)" stroke="none" fill="black" font-family="Arial" font-size="12.00"  text-anchor="end">
		<text><tspan font-family="Arial" > 1800</tspan></text>
	</g>
</g>
<g fill="none" color="black" stroke="currentColor" stroke-width="1.00" stroke-linecap="butt" stroke-linejoin="miter">
	<path stroke='black'  d='M62.2,171.4 L71.2,171.4 M615.0,171.4 L606.0,171.4  '/>	<g transform="translate(53.9,175.3)" stroke="none" fill="black" font-family="Arial" font-size="12.00"  text-anchor="end">
		<text><tspan font-family="Arial" > 1900</tspan></text>
	</g>
</g>
<g fill="none" color="black" stroke="currentColor" stroke-width="1.00" stroke-linecap="butt" stroke-linejoin="miter">
	<path stroke='black'  d='M62.2,107.6 L71.2,107.6 M615.0,107.6 L606.0,107.6  '/>	<g transform="translate(53.9,111.5)" stroke="none" fill="black" font-family="Arial" font-size="12.00"  text-anchor="end">
		<text><tspan font-family="Arial" > 2000</tspan></text>
	</g>
</g>
<g fill="none" color="black" stroke="currentColor" stroke-width="1.00" stroke-linecap="butt" stroke-linejoin="miter">
	<path stroke='black'  d='M62.2,43.8 L71.2,43.8 M615.0,43.8 L606.0,43.8  '/>	<g transform="translate(53.9,47.7)" stroke="none" fill="black" font-family="Arial" font-size="12.00"  text-anchor="end">
		<text><tspan font-family="Arial" > 2100</tspan></text>
	</g>
</g>
<g fill="none" color="black" stroke="currentColor" stroke-width="1.00" stroke-linecap="butt" stroke-linejoin="miter">
	<path stroke='black'  d='M62.2,428.0 L62.2,419.0 M62.2,18.1 L62.2,27.1  '/>	<g transform="translate(62.2,449.9)" stroke="none" fill="black" font-family="Arial" font-size="12.00"  text-anchor="middle">
		<text><tspan font-family="Arial" > 0</tspan></text>
	</g>
</g>
<g fill="none" color="black" stroke="currentColor" stroke-width="1.00" stroke-linecap="butt" stroke-linejoin="miter">
	<path stroke='black'  d='M118.0,428.0 L118.0,419.0 M118.0,18.1 L118.0,27.1  '/>	<g transform="translate(118.0,449.9)" stroke="none" fill="black" font-family="Arial" font-size="12.00"  text-anchor="middle">
		<text><tspan font-family="Arial" > 10</tspan></text>
	</g>
</g>
<g fill="none" color="black" stroke="currentColor" stroke-width="1.00" stroke-linecap="butt" stroke-linejoin="miter">
	<path stroke='black'  d='M173.9,428.0 L173.9,419.0 M173.9,18.1 L173.9,27.1  '/>	<g transform="translate(173.9,449.9)" stroke="none" fill="black" font-family="Arial" font-size="12.00"  text-anchor="middle">
		<text><tspan font-family="Arial" > 20</tspan></text>
	</g>
</g>
<g fill="none" color="black" stroke="currentColor" stroke-width="1.00" stroke-linecap="butt" stroke-linejoin="miter">
	<path stroke='black'  d='M229.7,428.0 L229.7,419.0 M229.7,18.1 L229.7,27.1  '/>	<g transform="translate(229.7,449.9)" stroke="none" fill="black" font-family="Arial" font-size="12.00"  text-anchor="middle">
		<text><tspan font-family="Arial" > 30</tspan></text>
	</g>
</g>
<g fill="none" color="black" stroke="currentColor" stroke-width="1.00" stroke-linecap="butt" stroke-linejoin="miter">
	<path stroke='black'  d='M285.6,428.0 L285.6,419.0 M285.6,18.1 L285.6,27.1  '/>	<g transform="translate(285.6,449.9)" stroke="none" fill="black" font-family="Arial" font-size="12.00"  text-anchor="middle">
		<text><tspan font-family="Arial" > 40</tspan></text>
	</g>
</g>
<g fill="none" color="black" stroke="currentColor" stroke-width="1.00" stroke-linecap="butt" stroke-linejoin="miter">
	<path stroke='black'  d='M341.4,428.0 L341.4,419.0 M341.4,18.1 L341.4,27.1  '/>	<g transform="translate(341.4,449.9)" stroke="none" fill="black" font-family="Arial" font-size="12.00"  text-anchor="middle">
		<text><tspan font-family="Arial" > 50</tspan></text>
	</g>
</g>
<g fill="none" color="black" stroke="currentColor" stroke-width="1.00" stroke-linecap="butt" stroke-linejoin="miter">
	<path stroke='black'  d='M397.2,428.0 L397.2,419.0 M397.2,18.1 L397.2,27.1  '/>	<g transform="translate(397.2,449.9)" stroke="none" fill="black" font-family="Arial" font-size="12.00"  text-anchor="middle">
		<text><tspan font-family="Arial" > 60</tspan></text>
	</g>
</g>
<g fill="none" color="black" stroke="currentColor" stroke-width="1.00" stroke-linecap="butt" stroke-linejoin="miter">
	<path stroke='black'  d='M453.1,428.0 L453.1,419.0 M453.1,18.1 L453.1,27.1  '/>	<g transform="translate(453.1,449.9)" stroke="none" fill="black" font-family="Arial" font-size="12.00"  text-anchor="middle">
		<text><tspan font-family="Arial" > 70</tspan></text>
	</g>
</g>
<g fill="none" color="black" stroke="currentColor" stroke-width="1.00" stroke-linecap="butt" stroke-linejoin="miter">
	<path stroke='black'  d='M508.9,428.0 L508.9,419.0 M508.9,18.1 L508.9,27.1  '/>	<g transform="translate(508.9,449.9)" stroke="none" fill="black" font-family="Arial" font-size="12.00"  text-anchor="middle">
		<text><tspan font-family="Arial" > 80</tspan></text>
	</g>
</g>
<g fill="none" color="black" stroke="currentColor" stroke-width="1.00" stroke-linecap="butt" stroke-linejoin="miter">
	<path stroke='black'  d='M564.7,428.0 L564.7,419.0 M564.7,18.1 L564.7,27.1  '/>	<g transform="translate(564.7,449.9)" stroke="none" fill="black" font-family="Arial" font-size="12.00"  text-anchor="middle">
		<text><tspan font-family="Arial" > 90</tspan></text>
	</g>
</g>
<g fill="none" color="black" stroke="currentColor" stroke-width="1.00" stroke-linecap="butt" stroke-linejoin="miter">
</g>
<g fill="none" color="black" stroke="currentColor" stroke-width="1.00" stroke-linecap="butt" stroke-linejoin="miter">
	<path stroke='black'  d='M62.2,18.1 L62.2,428.0 L615.0,428.0 L615.0,18.1 L62.2,18.1 Z  '/></g>
<g fill="none" color="black" stroke="currentColor" stroke-width="1.00" stroke-linecap="butt" stroke-linejoin="miter">
</g>
	<g id="gnuplot_plot_1" ><title>pages+cached+noexternal</title>
<g fill="none" color="black" stroke="currentColor" stroke-width="1.00" stroke-linecap="butt" stroke-linejoin="miter">
	<g transform="translate(437.8,467.9)" stroke="none" fill="black" font-family="Arial" font-size="12.00"  text-anchor="end">
		<text><tspan font-family="Arial" >pages+cached+noexternal</tspan></text>
	</g>
</g>
<g fill="none" color="black" stroke="currentColor" stroke-width="1.00" stroke-linecap="butt" stroke-linejoin="miter">
	<path stroke='rgb(148,   0, 211)'  d='M446.1,464.0 L488.3,464.0 M62.2,223.1 L67.8,221.8 L73.4,223.1 L79.0,75.7 L84.5,221.8 L90.1,221.8
		L95.7,222.4 L101.3,222.4 L106.9,76.4 L112.5,77.6 L118.0,75.1 L123.6,75.7 L129.2,75.1 L134.8,76.4
		L140.4,223.1 L146.0,126.7 L151.5,124.2 L157.1,73.2 L162.7,79.6 L168.3,74.5 L173.9,77.6 L179.5,220.5
		L185.0,222.4 L190.6,223.1 L196.2,222.4 L201.8,221.8 L207.4,223.1 L213.0,77.0 L218.5,121.6 L224.1,78.9
		L229.7,222.4 L235.3,74.5 L240.9,221.8 L246.5,222.4 L252.1,75.1 L257.6,222.4 L263.2,223.7 L268.8,221.8
		L274.4,76.4 L280.0,76.4 L285.6,77.0 L291.1,223.7 L296.7,75.7 L302.3,222.4 L307.9,224.3 L313.5,223.1
		L319.1,122.3 L324.6,223.7 L330.2,78.3 L335.8,223.1 L341.4,75.7 L347.0,75.7 L352.6,75.1 L358.1,77.6
		L363.7,221.1 L369.3,224.3 L374.9,221.8 L380.5,122.9 L386.1,75.7 L391.6,75.7 L397.2,223.1 L402.8,75.1
		L408.4,73.2 L414.0,73.2 L419.6,78.9 L425.1,124.8 L430.7,221.1 L436.3,74.5 L441.9,76.4 L447.5,223.7
		L453.1,223.7 L458.7,224.3 L464.2,223.1 L469.8,76.4 L475.4,222.4 L481.0,78.3 L486.6,221.8 L492.2,75.7
		L497.7,223.1 L503.3,75.7 L508.9,221.8 L514.5,124.2 L520.1,75.7 L525.7,224.3 L531.2,221.1 L536.8,78.3
		L542.4,124.2 L548.0,124.2 L553.6,76.4 L559.2,223.1 L564.7,75.1 L570.3,223.7 L575.9,76.4 L581.5,77.0
		L587.1,124.8 L592.7,76.4 L598.2,221.8 L603.8,76.4 L609.4,75.7 L615.0,221.8  '/></g>
	</g>
	<g id="gnuplot_plot_2" ><title>pages+cached+noexternal+nofonts</title>
<g fill="none" color="black" stroke="currentColor" stroke-width="1.00" stroke-linecap="butt" stroke-linejoin="miter">
	<g transform="translate(437.8,485.9)" stroke="none" fill="black" font-family="Arial" font-size="12.00"  text-anchor="end">
		<text><tspan font-family="Arial" >pages+cached+noexternal+nofonts</tspan></text>
	</g>
</g>
<g fill="none" color="black" stroke="currentColor" stroke-width="1.00" stroke-linecap="butt" stroke-linejoin="miter">
	<path stroke='rgb(  0, 158, 115)'  d='M446.1,482.0 L488.3,482.0 M62.2,418.2 L67.8,418.2 L73.4,418.2 L79.0,225.0 L84.5,225.6 L90.1,418.8
		L95.7,419.5 L101.3,177.8 L106.9,418.8 L112.5,26.0 L118.0,225.6 L123.6,418.8 L129.2,419.5 L134.8,418.8
		L140.4,418.8 L146.0,418.8 L151.5,418.2 L157.1,418.8 L162.7,418.8 L168.3,32.4 L173.9,418.8 L179.5,417.6
		L185.0,416.9 L190.6,176.5 L196.2,418.8 L201.8,419.5 L207.4,419.5 L213.0,418.8 L218.5,418.8 L224.1,418.8
		L229.7,26.6 L235.3,29.8 L240.9,419.5 L246.5,225.0 L252.1,29.2 L257.6,27.9 L263.2,418.8 L268.8,418.8
		L274.4,417.6 L280.0,418.2 L285.6,26.6 L291.1,418.2 L296.7,31.1 L302.3,418.8 L307.9,418.2 L313.5,226.2
		L319.1,418.8 L324.6,172.7 L330.2,418.8 L335.8,30.4 L341.4,29.2 L347.0,418.8 L352.6,418.8 L358.1,418.8
		L363.7,33.0 L369.3,177.1 L374.9,226.2 L380.5,31.7 L386.1,418.2 L391.6,418.8 L397.2,419.5 L402.8,418.8
		L408.4,418.2 L414.0,27.9 L419.6,418.8 L425.1,31.1 L430.7,30.4 L436.3,418.2 L441.9,26.0 L447.5,418.8
		L453.1,418.8 L458.7,418.8 L464.2,418.8 L469.8,420.1 L475.4,31.7 L481.0,418.2 L486.6,31.7 L492.2,419.5
		L497.7,225.0 L503.3,225.0 L508.9,418.2 L514.5,419.5 L520.1,419.5 L525.7,418.8 L531.2,418.2 L536.8,418.2
		L542.4,31.7 L548.0,418.8 L553.6,418.8 L559.2,28.5 L564.7,418.8 L570.3,418.2 L575.9,418.2 L581.5,418.2
		L587.1,174.6 L592.7,418.8 L598.2,225.0 L603.8,419.5 L609.4,418.2 L615.0,418.2  '/></g>
	</g>
<g fill="none" color="#FFFFFF" stroke="rgb(  0, 158, 115)" stroke-width="2.00" stroke-linecap="butt" stroke-linejoin="miter">
</g>
<g fill="none" color="black" stroke="currentColor" stroke-width="2.00" stroke-linecap="butt" stroke-linejoin="miter">
</g>
<g fill="none" color="black" stroke="black" stroke-width="1.00" stroke-linecap="butt" stroke-linejoin="miter">
</g>
<g fill="none" color="black" stroke="currentColor" stroke-width="1.00" stroke-linecap="butt" stroke-linejoin="miter">
	<path stroke='black'  d='M62.2,18.1 L62.2,428.0 L615.0,428.0 L615.0,18.1 L62.2,18.1 Z  '/></g>
<g fill="none" color="black" stroke="currentColor" stroke-width="1.00" stroke-linecap="butt" stroke-linejoin="miter">
</g>
</g>
</svg>
